icons/bag-plus.svg

<svg xmlns="http://www.w3.org/2000/svg" width="24" height="24" viewBox="0 0 24 24">
  <path d="M14,2 C15.5976809,2 16.9036609,3.24891996 16.9949073,4.82372721 L17,5 L17,6 L20,6 C21.1045695,6 22,6.8954305 22,8 L22,20 C22,21.1045695 21.1045695,22 20,22 L4,22 C2.8954305,22 2,21.1045695 2,20 L2,8 C2,6.8954305 2.8954305,6 4,6 L7,6 L7,5 C7,3.40231912 8.24891996,2.09633912 9.82372721,2.00509269 L10,2 L14,2 Z M12,10 C11.4477153,10 11,10.4477153 11,11 L11,11 L10.999,13 L9,13 L8.88337887,13.0067277 C8.38604019,13.0644928 8,13.4871642 8,14 C8,14.5522847 8.44771525,15 9,15 L9,15 L10.999,15 L11,17 L11.0067277,17.1166211 C11.0644928,17.6139598 11.4871642,18 12,18 C12.5522847,18 13,17.5522847 13,17 L13,17 L12.999,15 L15,15 L15.1166211,14.9932723 C15.6139598,14.9355072 16,14.5128358 16,14 C16,13.4477153 15.5522847,13 15,13 L15,13 L12.999,13 L13,11 L12.9932723,10.8833789 C12.9355072,10.3860402 12.5128358,10 12,10 Z M14,4 L10,4 C9.48716416,4 9.06449284,4.38604019 9.00672773,4.88337887 L9,5 L9,6 L15,6 L15,5 C15,4.48716416 14.6139598,4.06449284 14.1166211,4.00672773 L14,4 Z"/>
</svg>

<svg xmlns="http://www.w3.org/2000/svg" viewBox="0 0 24 24">
  <path d="M14 2a3 3 0 0 1 3 2.82V6h3a2 2 0 0 1 2 2v12a2 2 0 0 1-2 2H4a2 2 0 0 1-2-2V8c0-1.1.9-2 2-2h3V5a3 3 0 0 1 2.82-3H14zm-2 8a1 1 0 0 0-1 1v2H8.88A1 1 0 0 0 9 15h2v2.12a1 1 0 0 0 2-.12v-2h2.12a1 1 0 0 0-.12-2h-2v-2.12a1 1 0 0 0-1-.88zm2-6h-4a1 1 0 0 0-1 .88V6h6V5a1 1 0 0 0-.88-1H14z"/>
</svg>
